X:1
T:Restoration
T:A Major         Hezekiah Moors, 1809
T:Transcribed from Province Harmony , 1809; Counter by B. C. Johnston, 2018.
T:Charles Wesley, 1749 Forty-fourth Chapter of Isaiah        10 10.11 11.
%%score [ 1 2 3 4 ]
L:1/8
Q:1/4=100
M:2/4
K:A
V:1 treble nm="Tr." snm="Tr."
V:2 treble nm="C." snm="C."
V:3 treble-8 nm="T." snm="T."
V:4 bass nm="B." snm="B."
V:1
 E2 | A2 d c | B2 cB | A2 B A | (A G2) A/B/ | c2 d B | AG AB | cB A G | A4 |: z4 | z4 | z4 | z4 | %13
w: 1. Ye|hea- vens re-|joice in *|Je- su- s'|grace, * Let *|earth make a|noise, * and *|e- * cho his|praise!|||||
w: 2. A-|tone- ment he|made for *|e- ve- ry|one, * The *|debt he hath|paid, * the *|work * he hath|done.|||||
 z2 z E | A2 d c | B2 c d | ed c B | c4 :: z2 A2 | c2 c c | !fermata!c2 z A | B2 B B | %22
w: And|paid for his|fa- vor, the|price * of his|blood.|Ye|moun- tains and|vales, in|prai- ses a-|
w: A-|scri- ing sal-|va- tion to|Je- * sus his|love.|His|mer- cy hath|brought sal-|va- tion to|
 !fermata!B2 z e | e2 e e | !fermata!e2 z f | dc B A | A!fermata!G A2 | cB A G | A2 E E | FG A B | %30
w: bound, Ye|hills and ye|dales, con-|tin- * ue the|sound; * Break|forth * in- to|sing- ing ye|trees * of the|
w: all, Who|take it un-|bought, he|frees * them from|hell; * Through-|out * the be-|lie- ver his|glo- * ry dis-|
 B3 c | A2 d B | c2 A A | BA G G | A4 :| %35
w: wood, For|Je- sus is|bring- ing lost|sin- * ners to|God.|
w: plays, And|per- fects for|ev- er the|ves- * sels of|grace.|
V:2
 E2 | A2 B c | B2 cB | c2 B A | (A G2) E | E2 F G | AB AB | cB c B | A4 |: z4 | z4 | z4 | z4 | %13
 z2 z E | A2 B c | B2 A B | cB A B | c4 :: z2 c2 | A2 A A | !fermata!A2 z c | B2 B B | %22
 !fermata!B2 z B | c2 c c | !fermata!c2 z A | BA B F | F!fermata!E A2 | cB A G | A2 A A | AB A B | %30
 B3 A | FG F G | A2 A A | BA c B | A4 :| %35
V:3
 E2 | A2 G A | B2 AB | c2 d c | (c B2) c/d/ | e2 f ^d | cB cd | ed c B | A4 |: z2 E2 | FG A B | %11
w: 1. Ye|hea- vens re-|joice in *|Je- su- s'|grace, * Let *|earth make a|noise, * and *|e- * cho his|praise!|Our|all- * lo- ving|
w: 2. A-|tone- ment he|made for *|e- ve- ry|one, * The *|debt he hath|paid, * the *|work * he hath|done,|Shout|all * the cre-|
 c2 c f | cB A G | F3 E | A2 G A | B2 A B | cB A G | A4 :: z2 c2 | e2 e e | !fermata!e2 z c | %21
w: Sa- vior hath|pa- * ci- fied|God, And|paid for his|fa- vor, the|price * of his|blood.|Ye|moun- tains and|vales, in|
w: a- tiom be-|low * and a-|bove, A-|scri- ing sal-|va- tion to|Je- * sus his|love.|His|mer- cy hath|brought sal-|
 d2 d d | !fermata!d2 z B | c2 c c | !fermata!c2 z A | BA G F | !fermata!E2 A2 | ed c B | A2 E E | %29
w: prai- ses a-|bound, Ye|hills and ye|dales, con-|tin- * ue the|sound; Break|forth * in- to|sing- ing ye|
w: va- tion to|all, Who|take it un-|bought, he|frees * them from|hell; Through-|out * the be-|lie- ver his|
 AB c ^d | e3 e | fe f g | a2 c c | d2 c B | A4 :| %35
w: trees * of the|wood, For|Je- sus is bring-|ing lost sin-|* ners to|God.|
w: glo- * ry dis-|plays, And|per- fects for ev-|er the ves-|* sels of|grace.|
V:4
 E,2 | A,2 B, A, | G,2 F,G, | A,2 D, A,, | E,3 E, | A,2 F, B, | E,2 A,2 | C,D, E, E, | A,,4 |: %9
 z2 E,2 | A,G, F, E, | C,2 C, B,, | A,,B,, C, C, | F,3 E, | A,2 B, A, | G,2 F, D, | C,D, E, E, | %17
 A,,4 :: z2 A,2 | %19
"______________________________________________________________________\nEdited by B. C. Johnston, 2018\n   1. Grace eighth-notes replaced with normal eighth-notes in measures 5, 7, and 27.\n   2. Counter part written." A,2 A, A, | %20
 !fermata!A,2 z F, | D,2 D, D, | !fermata!D,2 z E, | A,2 A, A, | !fermata!A,2 z F, | B,,2 B,, B,, | %26
 !fermata!E,2 A,2 | E,2 E, E, | A,2 E, E, | A,G, F, B,, | E,3 A, | DC D E | A,2 A, A, | D,2 E, E, | %34
 A,,4 :| %35

